wp-content/themes/sayenko-erickson/public/images/careers/Group 4.svg

<?xml version="1.0" encoding="UTF-8"?>
<svg width="48px" height="74px" viewBox="0 0 48 74" version="1.1" xmlns="http://www.w3.org/2000/svg" xmlns:xlink="http://www.w3.org/1999/xlink">
    <!-- Generator: Sketch 62 (91390) - https://sketch.com -->
    <title>Group 4</title>
    <desc>Created with Sketch.</desc>
    <g id="Mockups" stroke="none" stroke-width="1" fill="none" fill-rule="evenodd">
        <g id="Career-Index" transform="translate(-893.000000, -905.000000)" fill="#E9731F" fill-rule="nonzero" stroke="#FFFFFF" stroke-width="0.7">
            <g id="Group-4" transform="translate(892.000000, 906.000000)">
                <g id="file" transform="translate(24.600000, 36.000000) scale(-1, 1) translate(-24.600000, -36.000000) translate(0.600000, 0.000000)">
                    <path d="M47.1854687,14.0213282 C47.1849218,14.0060157 47.184375,13.9907032 47.1832813,13.9753907 C47.1789063,13.9146875 47.1728907,13.8550782 47.1608593,13.7960157 C47.1608593,13.7960157 47.1608593,13.7960157 47.1608593,13.7954687 C47.1488282,13.7364063 47.131875,13.6778907 47.1127343,13.6210157 C47.1078125,13.6067968 47.1028907,13.5925782 47.0974218,13.5783593 C47.0771875,13.5242187 47.0542187,13.4711718 47.0279687,13.4197657 C47.0263282,13.4170313 47.0252343,13.4142968 47.0235937,13.4115625 C46.9951563,13.3579687 46.9623437,13.3071093 46.9267968,13.2573437 C46.9180468,13.2447657 46.90875,13.2327343 46.8994532,13.2201563 C46.8617187,13.1709375 46.8223437,13.1233593 46.7780468,13.0790625 L34.1091407,0.41015632 C34.0648437,0.36585934 34.0172657,0.32648434 33.9680468,0.28875 C33.9554687,0.27945316 33.9428907,0.26960934 33.9303125,0.26085934 C33.8805468,0.2253125 33.8302343,0.1925 33.7771875,0.16460934 C33.7733593,0.16242184 33.7695313,0.16132816 33.76625,0.15914066 C33.7159375,0.13289066 33.6634375,0.11046868 33.6103907,0.09023434 C33.595625,0.08476566 33.5814063,0.07984368 33.5660937,0.07492184 C33.5092187,0.05578132 33.4517968,0.03882816 33.3921875,0.02679684 C33.3916407,0.02679684 33.3910937,0.02679684 33.3910937,0.02679684 C33.3325782,0.0153125 33.2729687,0.00875 33.2128125,0.004375 C33.1975,0.003828132 33.1821875,0.002734368 33.166875,0.0021875 C33.1510157,0.001640632 33.1351563,0 33.1192968,0 L1.4,0 C0.62671868,0 -2.84217094e-14,0.62671868 -2.84217094e-14,1.4 L-2.84217094e-14,61.3232813 C-2.84217094e-14,62.0965625 0.62671868,62.7232813 1.4,62.7232813 L22.4776563,62.7232813 L22.4776563,70.28 C22.4776563,70.7891407 22.754375,71.2583593 23.2000782,71.505 C23.6463282,71.7516407 24.1904687,71.736875 24.6219532,71.4661718 L29.9539843,68.1209375 L35.2860157,71.4661718 C35.5129687,71.6083593 35.7716407,71.6801103 36.0303125,71.6801103 C36.2632813,71.6801103 36.4967968,71.6220313 36.7078907,71.5055468 C37.1535937,71.2589063 37.4303125,70.7896875 37.4303125,70.28 L37.4303125,62.7232813 L45.7876563,62.7232813 C46.5609375,62.7232813 47.1876563,62.0965625 47.1876563,61.3232813 L47.1876563,14.0689063 C47.1876563,14.0530468 47.1860157,14.0371875 47.1854687,14.0213282 L47.1854687,14.0213282 Z M34.5192968,4.78023434 L42.4079687,12.6689063 L34.5192968,12.6689063 L34.5192968,4.78023434 Z M21.7869532,43.2419532 C21.6885157,42.9745313 21.5282813,42.5375782 21.5244532,42.35875 C21.6338282,42.223125 22.0133593,41.9830468 22.2457813,41.8364843 C22.7445313,41.5214843 23.31,41.1638282 23.7201563,40.6049218 C24.1341407,40.04 24.3025782,39.3875782 24.4513282,38.8122657 C24.5164063,38.5607032 24.6214063,38.154375 24.7110937,38.0007032 C24.7603125,37.9903125 24.8636718,37.9755468 25.0578125,37.9755468 C25.2136718,37.9755468 25.388125,37.9842968 25.5729687,37.9935937 C25.7851563,38.0039843 26.0039063,38.0149218 26.2325,38.0149218 C26.7367187,38.0149218 27.1435937,37.9580468 27.5127343,37.835 C28.1575,37.620625 28.6732032,37.2055468 29.1282032,36.8391407 C29.3797657,36.6367968 29.8008593,36.2977343 29.9474218,36.2769532 C30.1076563,36.2977343 30.5282032,36.6367968 30.7797657,36.8391407 C31.2347657,37.2055468 31.7510157,37.620625 32.3957813,37.835 C32.7649218,37.9580468 33.17125,38.0149218 33.6760157,38.0149218 C33.9040625,38.0149218 34.1233593,38.0039843 34.335,37.9935937 C34.5198437,37.9842968 34.6942968,37.9755468 34.8507032,37.9755468 C35.0448437,37.9755468 35.1476563,37.9897657 35.1974218,38.0007032 C35.2871093,38.154375 35.3921093,38.5607032 35.4566407,38.8122657 C35.6053907,39.3875782 35.774375,40.04 36.1883593,40.6049218 C36.5979687,41.1638282 37.1634375,41.5209375 37.6627343,41.8364843 C37.8946093,41.9835937 38.2741407,42.223125 38.3835157,42.35875 C38.3796875,42.5375782 38.2194532,42.9745313 38.1215625,43.2419532 C37.9132032,43.8090625 37.6775,44.4521875 37.6775,45.1647657 C37.6775,45.8773437 37.9132032,46.5204687 38.1210157,47.088125 C38.2194532,47.3555468 38.3796875,47.7925 38.3835157,47.9713282 C38.2741407,48.1069532 37.8946093,48.3464843 37.6627343,48.4935937 C37.1634375,48.8085937 36.5979687,49.16625 36.1883593,49.7251563 C35.774375,50.2900782 35.6053907,50.9425 35.4566407,51.5178125 C35.3921093,51.7688282 35.2865625,52.1757032 35.1974218,52.329375 C35.1476563,52.3397657 35.0448437,52.3545313 34.8507032,52.3545313 C34.6942968,52.3545313 34.5198437,52.3457813 34.335,52.3364843 C34.1233593,52.3260937 33.9040625,52.3151563 33.6760157,52.3151563 C33.17125,52.3151563 32.7649218,52.3720313 32.3957813,52.4950782 C31.7510157,52.7094532 31.2347657,53.1250782 30.7797657,53.4909375 C30.5320313,53.6910937 30.1185937,54.0230468 29.9539843,54.0525782 C29.789375,54.0230468 29.3764843,53.6910937 29.12875,53.4909375 C28.6732032,53.1250782 28.1575,52.7094532 27.5127343,52.4950782 C27.1435937,52.3720313 26.7367187,52.3151563 26.2325,52.3151563 C26.0044532,52.3151563 25.7851563,52.3260937 25.5729687,52.3364843 C25.3886718,52.3457813 25.2142187,52.3545313 25.0578125,52.3545313 C24.8636718,52.3545313 24.7608593,52.3397657 24.7110937,52.329375 C24.6214063,52.1757032 24.5164063,51.769375 24.4513282,51.5178125 C24.303125,50.9425 24.1341407,50.2900782 23.7201563,49.7251563 C23.3105468,49.16625 22.7450782,48.8085937 22.2457813,48.4935937 C22.0139063,48.3470313 21.634375,48.1069532 21.525,47.9713282 C21.5288282,47.7930468 21.6890625,47.3555468 21.7869532,47.088125 C21.9953125,46.5210157 22.2310157,45.8778907 22.2310157,45.1653125 C22.2310157,44.4521875 21.9947657,43.8090625 21.7869532,43.2419532 L21.7869532,43.2419532 Z M34.6303125,67.7490625 L30.6982813,65.2821093 C30.2432813,64.9971875 29.6646875,64.9971875 29.2096875,65.2821093 L25.2776563,67.7490625 L25.2776563,55.1501563 C25.4264063,55.1457813 25.5724218,55.1403125 25.7140625,55.1332032 C25.8994532,55.1233593 26.0744532,55.1146093 26.2325,55.1146093 C26.4807813,55.1146093 26.586875,55.1375782 26.6278907,55.15125 C26.7946875,55.2070313 27.1151563,55.4651563 27.3727343,55.6724218 C28.02625,56.1985157 28.8394532,56.853125 29.9539843,56.853125 C31.0685157,56.853125 31.8817187,56.1985157 32.5352343,55.6724218 C32.7928125,55.4651563 33.1132813,55.2070313 33.2795313,55.1517968 C33.3210937,55.138125 33.4271875,55.1151563 33.6754687,55.1151563 C33.8335157,55.1151563 34.0085157,55.1239063 34.1939063,55.1332032 C34.3355468,55.1403125 34.4815625,55.1463282 34.6297657,55.1501563 L34.6297657,67.7490625 L34.6303125,67.7490625 Z M37.4303125,59.9232813 L37.4303125,54.0219532 C37.8464843,53.4564843 38.0203907,52.7871093 38.1675,52.2183593 C38.2446093,51.9197657 38.3501563,51.51125 38.4464063,51.3805468 C38.5421093,51.2492968 38.898125,51.0245313 39.1578907,50.8604687 C39.8469532,50.4251563 40.7044532,49.8832032 41.0451563,48.8583593 C41.3820313,47.8471875 41.0314843,46.8917968 40.7498437,46.1239843 C40.621875,45.775625 40.4769532,45.3802343 40.4769532,45.1647657 C40.4769532,44.9492968 40.621875,44.5544532 40.7498437,44.2060937 C41.0314843,43.4382813 41.3820313,42.4823437 41.0451563,41.4711718 C40.7044532,40.446875 39.8469532,39.9049218 39.1578907,39.4696093 C38.898125,39.3055468 38.5421093,39.0802343 38.4464063,38.9500782 C38.3501563,38.8188282 38.2446093,38.4103125 38.1675,38.1117187 C37.96625,37.3324218 37.7157813,36.3622657 36.8582813,35.7333593 C36.1757813,35.2335157 35.3855468,35.1755468 34.8501563,35.1755468 C34.62375,35.1755468 34.405,35.1864843 34.1939063,35.1974218 C34.0085157,35.2067187 33.8335157,35.2154687 33.6760157,35.2154687 C33.4271875,35.2154687 33.3210937,35.1925 33.2800782,35.1788282 C33.1138282,35.1235937 32.7933593,34.8654687 32.5357813,34.6576563 C31.8817187,34.1321093 31.0685157,33.4775 29.9539843,33.4775 C28.84,33.4775 28.02625,34.1321093 27.3727343,34.6576563 C27.1151563,34.8649218 26.7946875,35.1235937 26.6284375,35.1788282 C26.5874218,35.1925 26.4807813,35.2154687 26.2325,35.2154687 C26.075,35.2154687 25.8994532,35.2067187 25.7140625,35.196875 C25.5029687,35.1864843 25.2847657,35.1755468 25.0578125,35.1755468 C24.5229687,35.1755468 23.7327343,35.2335157 23.0507813,35.7333593 C22.1927343,36.3622657 21.9417187,37.3324218 21.7404687,38.1117187 C21.6633593,38.4103125 21.5578125,38.8188282 21.4621093,38.9495313 C21.3658593,39.0802343 21.0098437,39.3055468 20.7500782,39.4696093 C20.0610157,39.9049218 19.2040625,40.446875 18.8628125,41.4711718 C18.5259375,42.4828907 18.8764843,43.4382813 19.158125,44.2060937 C19.2860937,44.5544532 19.4310157,44.9492968 19.4310157,45.1647657 C19.4310157,45.3802343 19.2860937,45.775625 19.158125,46.1239843 C18.8764843,46.8917968 18.5259375,47.8471875 18.8628125,48.8589063 C19.2040625,49.8832032 20.0615625,50.4251563 20.7500782,50.8604687 C21.0103907,51.0245313 21.3658593,51.2498437 21.4621093,51.3805468 C21.5578125,51.51125 21.6633593,51.9197657 21.7404687,52.2183593 C21.8875782,52.7871093 22.0620313,53.4570313 22.4782032,54.0219532 L22.4782032,59.9232813 L2.8,59.9232813 L2.8,2.8 L31.7192968,2.8 L31.7192968,14.0689063 C31.7192968,14.8421875 32.3460157,15.4689063 33.1192968,15.4689063 L44.3876563,15.4689063 L44.3876563,59.9232813 L37.4303125,59.9232813 Z" id="Shape"></path>
                </g>
            </g>
        </g>
    </g>
</svg>

<svg width="48" height="74" viewBox="0 0 48 74" version="1.1" xmlns="http://www.w3.org/2000/svg"><g id="Mockups" stroke="none" stroke-width="1" fill="none" fill-rule="evenodd"><g id="Career-Index" transform="translate(-893 -905)" fill="#E9731F" fill-rule="nonzero" stroke="#FFF" stroke-width=".7"><g id="Group-4" transform="translate(892 906)"><g id="file" transform="matrix(-1 0 0 1 48.6 0)"><path d="M47.185 14.021c0-.015 0-.03-.002-.046-.004-.06-.01-.12-.022-.179 0 0 0 0 0 0a1.47 1.47 0 0 0-.133-.376l-.004-.008a1.373 1.373 0 0 0-.097-.155l-.028-.037a1.413 1.413 0 0 0-.121-.14L34.109.41a1.413 1.413 0 0 0-.141-.121c-.013-.01-.025-.02-.038-.028-.05-.036-.1-.069-.153-.096l-.01-.006a1.466 1.466 0 0 0-.375-.132s0 0 0 0a1.484 1.484 0 0 0-.18-.023l-.045-.002L33.119 0H1.4A1.4 1.4 0 0 0 0 1.4v59.923a1.4 1.4 0 0 0 1.4 1.4h21.078v7.557a1.4 1.4 0 0 0 2.144 1.186l5.332-3.345 5.332 3.345a1.402 1.402 0 0 0 2.144-1.186v-7.557h8.358a1.4 1.4 0 0 0 1.4-1.4V14.07l-.003-.048h0zM34.52 4.781l7.889 7.888H34.52V4.78zm-12.733 38.46c-.098-.267-.259-.704-.263-.883.11-.136.49-.376.722-.523.499-.315 1.064-.672 1.474-1.231.414-.565.583-1.217.731-1.793.065-.251.17-.658.26-.811.05-.01.153-.025.347-.025.156 0 .33.008.515.018.212.01.43.02.66.02.504 0 .91-.056 1.28-.179.644-.214 1.16-.63 1.615-.996.252-.202.673-.541.82-.562.16.02.58.36.832.562.455.367.971.782 1.616.996.369.123.775.18 1.28.18.228 0 .447-.011.659-.021.185-.01.36-.018.516-.018.194 0 .297.014.346.025.09.153.195.56.26.811.148.576.317 1.228.731 1.793.41.559.975.916 1.475 1.231.232.148.611.387.72.523-.003.179-.164.616-.261.883-.209.567-.444 1.21-.444 1.923 0 .712.235 1.355.443 1.923.098.268.259.704.263.883-.11.136-.49.375-.721.523-.5.315-1.065.672-1.475 1.231-.414.565-.583 1.218-.731 1.793-.065.25-.17.658-.26.811-.05.01-.152.026-.346.026-.157 0-.331-.01-.516-.019-.212-.01-.43-.02-.659-.02-.505 0-.911.056-1.28.18-.645.213-1.161.63-1.616.995-.248.2-.661.532-.826.562-.165-.03-.578-.362-.825-.562-.456-.366-.972-.782-1.616-.996-.37-.123-.776-.18-1.28-.18-.229 0-.448.011-.66.021-.184.01-.359.019-.515.019-.194 0-.297-.015-.347-.026-.09-.153-.195-.56-.26-.811-.148-.575-.317-1.228-.73-1.793-.41-.559-.976-.916-1.475-1.231-.232-.147-.612-.387-.721-.523.004-.178.164-.615.262-.883.208-.567.444-1.21.444-1.923 0-.713-.236-1.356-.444-1.923h0zM34.63 67.749l-3.932-2.467a1.403 1.403 0 0 0-1.488 0l-3.932 2.467V55.15c.148-.004.294-.01.436-.017.185-.01.36-.018.519-.018.248 0 .354.023.395.036.167.056.487.314.745.521.653.527 1.466 1.181 2.581 1.181s1.928-.654 2.581-1.18c.258-.208.578-.466.745-.521.041-.014.147-.037.395-.037.159 0 .334.009.519.018.142.007.288.013.436.017v12.6h0zm2.8-7.826v-5.901c.416-.566.59-1.235.737-1.804.078-.298.183-.707.28-.837.095-.132.451-.356.71-.52.69-.436 1.547-.978 1.888-2.003.337-1.01-.014-1.966-.295-2.734-.128-.348-.273-.744-.273-.96 0-.215.145-.61.273-.958.281-.768.632-1.724.295-2.735-.34-1.024-1.198-1.566-1.887-2.001-.26-.164-.616-.39-.712-.52-.096-.131-.201-.54-.279-.838-.2-.78-.451-1.75-1.309-2.379-.682-.5-1.472-.557-2.008-.557-.226 0-.445.01-.656.021-.185.01-.36.018-.518.018-.249 0-.355-.023-.396-.036-.166-.055-.487-.314-.744-.521-.654-.526-1.467-1.18-2.582-1.18-1.114 0-1.928.654-2.581 1.18-.258.207-.578.466-.745.52-.04.015-.147.037-.395.037a9.91 9.91 0 0 1-.519-.018c-.211-.01-.43-.021-.656-.021-.535 0-1.325.058-2.007.557-.858.63-1.11 1.6-1.31 2.379-.078.298-.183.707-.279.838-.096.13-.452.356-.712.52-.689.435-1.546.977-1.887 2.001-.337 1.012.013 1.967.295 2.735.128.348.273.743.273.959 0 .215-.145.61-.273.959-.282.768-.632 1.723-.295 2.735.341 1.024 1.199 1.566 1.887 2.001.26.165.616.39.712.52.096.131.201.54.278.838.148.57.322 1.239.738 1.804v5.901H2.8V2.8h28.92v11.269a1.4 1.4 0 0 0 1.4 1.4h11.268v44.454H37.43z" id="Shape"/></g></g></g></g></svg>
